app/dist/common/images/obic.svg

<svg height="18" viewBox="0 0 18 18" width="18" xmlns="http://www.w3.org/2000/svg"><path d="m0 0h18v18h-18z" fill="#f0f3fa"/><path d="m4 11.75v-4.47l2.79-2.55h4.46l2.75 2.55v4.36l-2.75 2.36h-4.46zm3.47-4.4v4.43h4.09v-4.43h-4.1z" fill="#850212"/><path d="m4 10.81v-4.34l2.79-2.47h4.46l2.75 2.47v4.24l-2.75 2.29h-4.46zm2.38-4.2v4h5v-4z" fill="#e51a25"/></svg>

<!-- by TradingView --><svg xmlns="http://www.w3.org/2000/svg" width="18" height="18" viewBox="0 0 18 18"><path fill="#F0F3FA" d="M0 0h18v18H0z"/><path d="M4 11.75V7.28l2.79-2.55h4.46L14 7.28v4.36L11.25 14H6.79L4 11.75Zm3.47-4.4v4.43h4.09V7.35h-4.1Z" fill="#850212"/><path d="M4 10.81V6.47L6.79 4h4.46L14 6.47v4.24L11.25 13H6.79L4 10.81Zm2.38-4.2v4h5v-4h-5Z" fill="#E51A25"/></svg>
